!!!!SEGMENT: pl-cz--iii-744--001-001_zebrowski-marcin-jozef--missa-ex-d-kyrie.krn
!!!cenid: 17xx:2343
!!!COM: Żebrowski, Marcin Józef
!!!COM-rismid: pe30020322
!!!CDT: 1702-1770/06/29
!!!CNT: Polish
!!!OPR: Missa ex D
!!!OTL: Kyrie
!!!OMV: 001
!!!PDT: 1782
!!!AGN:
!!!SMS-siglum: PL-CZ
!!!SMS-shelfmark: III-744
!!!SMS-shelfwork: 001-001 M
!!!SMS-variant:
!!!SMS-altvar:
!!!NIFC-rismid: 300033496
!!!URL-scan: https://repozytorium.nifc.pl/islandora/object/pl-cz%3A25261/datastream/PDF/view
!!!ONB-nifc: UWAGA: części Mszy: 1. Kyrie, 2. Gloria, 3. Patrem, 4. Sanctus, 5. Benedictus, 6. Agnus Dei
!!!AIN: 1 bass 2 clrno 1 organ 1 soprn 2 violn
!!!key:
**kern	**kern	**kern	**dynam	**fba	**kern	**dynam	**kern	**dynam	**kern	**text	**mxhm	**kern	**text	**mxhm
*part7	*part6	*part5	*part5	*part5	*part4	*part4	*part3	*part3	*part2	*part2	*part2	*part1	*part1	*part1
*staff7	*staff6	*staff5	*	*	*staff4	*	*staff3	*	*staff2	*staff2	*	*staff1	*staff1	*
*I"Clarino Secundo ex D	*I"Clarino Primo Ex D	*I"Organo.	*	*	*I"Violino Secundo.	*	*I"Violino Primo.	*	*I"Basso.	*	*	*I"Canto.	*	*
*I'tr in D	*I'tr in D	*I'org	*	*	*I'vl II	*	*I'vl I	*	*I'B	*	*	*I'S	*	*
*Iclrno	*Iclrno	*Iorgan	*	*	*Ivioln	*	*Ivioln	*	*Ibass	*	*	*Isoprn	*	*
*ICbras	*ICbras	*ICklav	*	*	*ICvioln	*	*ICvioln	*	*ICvox	*	*	*ICvox	*	*
*IG	*	*	*	*	*	*	*	*	*	*	*	*	*	*
*clefG2	*clefG2	*clefF4	*	*	*clefG2	*	*clefG2	*	*clefF4	*	*	*clefC1	*	*
*ITrd-1c-2	*ITrd-1c-2	*	*	*	*	*	*	*	*	*	*	*	*	*
*k[f#c#]	*k[f#c#]	*k[f#c#]	*	*	*k[f#c#]	*	*k[f#c#]	*	*k[f#c#]	*	*	*k[f#c#]	*	*
*G:	*G:	*G:	*	*	*G:	*	*G:	*	*G:	*	*	*G:	*	*
*M4/4	*M4/4	*M4/4	*	*	*M4/4	*	*M4/4	*	*M4/4	*	*	*M4/4	*	*
*met(c)	*met(c)	*met(c)	*	*	*met(c)	*	*met(c)	*	*met(c)	*	*	*met(c)	*	*
=1	=1	=1	=1	=1	=1	=1	=1	=1	=1	=1	=1	=1	=1	=1
*	*	*	*	*	*^	*	*	*	*	*	*	*	*	*
!	!	!	!	!	!	!	!	!	!	!	!	!	!LO:TX:a:B:t=Grave	!	!
*2\right	*2\right	*	*	*	*	*	*	*	*	*2\right	*	*	*2\right	*	*
*all\right	*all\right	*	*	*	*	*	*	*	*	*all\right	*	*	*all\right	*	*
8d|/L	8d|/L	8D|/L	.	.	8a|/L	8f#\L	.	(16d/LL	.	4.d\	Ky-	.	4.dd\	Ky-	.
.	.	.	.	.	.	.	.	16f#/)	.	.	.	.	.	.	.
8d|/	8d|/	8D|/	.	.	8a|/	8f#\	.	(16a/	.	.	.	.	.	.	.
.	.	.	.	.	.	.	.	16dd/JJ)	.	.	.	.	.	.	.
8d|/	8d|/	8D|/	.	.	8a|/	8f#\	.	(16d/LL	.	.	.	.	.	.	.
.	.	.	.	.	.	.	.	16f#/)	.	.	.	.	.	.	.
8d|/J	8d|/J	8D|/J	.	.	8a|/J	8f#\J	.	(16a/	.	8d\	-ri-	.	8a\	-ri-	.
.	.	.	.	.	.	.	.	16dd/JJ)	.	.	.	.	.	.	.
4d/	4d/	8D|/L	.	6 4 2	8b|/L	8g\L	.	(16d/LL 16e	.	2d\	-e	.	2b\	-e	.
.	.	.	.	.	.	.	.	16g/)	.	.	.	.	.	.	.
.	.	8D|/	.	.	8b|/	8g\	.	(16b/	.	.	.	.	.	.	.
.	.	.	.	.	.	.	.	16ee/JJ)	.	.	.	.	.	.	.
4r	4r	8D|/	.	.	8b|/	8g\	.	(16e/LL	.	.	.	.	.	.	.
.	.	.	.	.	.	.	.	16g/)	.	.	.	.	.	.	.
.	.	8D|/J	.	.	8b|/J	8g\J	.	(16b/	.	.	.	.	.	.	.
.	.	.	.	.	.	.	.	16ee/JJ)	.	.	.	.	.	.	.
*	*	*	*	*	*v	*v	*	*	*	*	*	*	*	*	*
=2	=2	=2	=2	=2	=2	=2	=2	=2	=2	=2	=2	=2	=2	=2
*	*	*	*	*	*	*	*	*	*	*ij	*	*	*ij	*
8a|/L	8a|/L	8Cn|/L	.	6	8a/L	.	(16e/LL	.	4.cn\	Ky-	.	4.ccn\	Ky-	.
.	.	.	.	.	.	.	16a/)	.	.	.	.	.	.	.
8a|/	8a|/	8C|/	.	.	8a/	.	(16ccn/	.	.	.	.	.	.	.
.	.	.	.	.	.	.	16ee/JJ)	.	.	.	.	.	.	.
8a|/	8a|/	8C|/	.	.	8a/	.	(16e/LL	.	.	.	.	.	.	.
.	.	.	.	.	.	.	16a/)	.	.	.	.	.	.	.
8a|/J	8a|/J	8C|/J	.	5	8a/J	.	(16ccn/	.	8c\	-ri-	.	8g\	-ri-	.
.	.	.	.	.	.	.	16ee/JJ)	.	.	.	.	.	.	.
4a/	4a/	8C|/L	.	4 2	8f#/L	.	(16d/LL	.	2c\	-e	.	2a\	-e	.
*	*	*	*	*	*	*	*	*	*	*Xij	*	*	*Xij	*
.	.	.	.	.	.	.	16f#/)	.	.	.	.	.	.	.
.	.	8C|/	.	.	8f#/	.	(16a/	.	.	.	.	.	.	.
.	.	.	.	.	.	.	16dd/JJ)	.	.	.	.	.	.	.
4r	4r	8C|/	.	.	8f#/	.	(16d/LL	.	.	.	.	.	.	.
.	.	.	.	.	.	.	16f#/)	.	.	.	.	.	.	.
.	.	8C|/J	.	.	8f#/J	.	(16a/	.	.	.	.	.	.	.
.	.	.	.	.	.	.	16dd/JJ)	.	.	.	.	.	.	.
=3	=3	=3	=3	=3	=3	=3	=3	=3	=3	=3	=3	=3	=3	=3
4r	4r	4r	.	.	4G/ 4d 4b 4gg	.	4G/ 4d 4b 4gg	.	4r	.	.	4r	.	.
*	*	*2\right	*	*	*	*	*	*	*	*	*	*	*	*
*	*	*all\right	*	*	*	*	*	*	*	*	*	*	*	*
4d/	4dd\	2G\	.	9	4b\	.	4dd\	.	2G\	e-	.	4b\	e-	.
4a/	4ee\	.	.	4 2	8cc#\L	.	4ee\	.	.	.	.	4cc#X\	.	.
.	.	.	.	.	16b\L	.	.	.	.	.	.	.	.	.
.	.	.	.	.	16a\JJ	.	.	.	.	.	.	.	.	.
4dd\	4ff#\	4F#\	.	6	[4dd\	.	4ff#\	.	4F#\	.	.	[4dd\	.	.
=4	=4	=4	=4	=4	=4	=4	=4	=4	=4	=4	=4	=4	=4	=4
4ee\	4gg#X\	4E\	.	7 #	4dd\]	.	4gg#X\	.	4E\	.	.	4dd\]	.	.
4ee\	2aa\	4A\	.	.	8cc#\L	.	4.aa\	.	2A\	.	.	4cc#\	.	.
.	.	.	.	.	16b\L	.	.	.	.	.	.	.	.	.
.	.	.	.	.	16a\JJ	.	.	.	.	.	.	.	.	.
.	.	.	.	.	8qqa/	.	.	.	.	.	.	.	.	.
4.ee\	.	4E\	.	4	2bT/	.	.	.	.	.	.	2bT\	-lei-	.
.	.	.	.	.	.	.	16gg#X\LL	.	.	.	.	.	.	.
.	.	.	.	.	.	.	16ff#\JJ	.	.	.	.	.	.	.
.	4gg#X\	4EE/	.	#	.	.	8.ee\L	.	4G#X\	-lei-	.	.	.	.
8ee\	.	.	.	.	.	.	.	.	.	.	.	.	.	.
.	.	.	.	.	.	.	16ee\Jk	.	.	.	.	.	.	.
=5	=5	=5	=5	=5	=5	=5	=5	=5	=5	=5	=5	=5	=5	=5
1ee	1aa	1AA	.	.	1cc#	.	1ee	.	1A	-son	.	1a	-son	.
!	!	!LO:LB:g=original	!	!	!LO:LB:g=original	!	!LO:LB:g=original	!	!	!	!	!	!	!
=6||	=6||	=6||	=6||	=6||	=6||	=6||	=6||	=6||	=6||	=6||	=6||	=6||	=6||	=6||
*M4/4	*M4/4	*M4/4	*	*	*M4/4	*	*M4/4	*	*M4/4	*	*	*M4/4	*	*
*met(c)	*met(c)	*met(c)	*	*	*met(c)	*	*met(c)	*	*met(c)	*	*	*met(c)	*	*
!LO:TX:b:t=Kyrie et Dona nobis.	!LO:TX:b:t=Kyrie et Dona nobis.	!LO:TX:a:t=Solo	!	!	!	!	!	!	!LO:TX:a:t=19	!	!	!LO:TX:a:t=9	!	!
!LO:TX:a:t=allo.	!LO:TX:a:t=allo.	!LO:TX:b:t=Kyrie allo.	!	!	!LO:TX:b:t=Kyrie et Dona nobis.	!	!	!	!LO:TX:a:t=allo Solo	!	!	!LO:TX:a:B:t=Allegro	!	!
4.ff#\	4.aa\	8D\L	.	.	8f#/L	.	8.dd\L	.	1r	.	.	1r	.	.
.	.	8E\	.	.	8e/J	.	.	.	.	.	.	.	.	.
.	.	.	.	.	.	.	16a\Jk	.	.	.	.	.	.	.
.	.	8F#\	.	6	8.d/L	.	8a\L	.	.	.	.	.	.	.
8gg\	8bb\	8G\J	.	.	.	.	8b\J	.	.	.	.	.	.	.
.	.	.	.	.	16g/Jk	.	.	.	.	.	.	.	.	.
.	.	.	.	.	8qqa/	.	8qqcc#/	.	.	.	.	.	.	.
8gg\L	8bb\L	8d\L	.	6 4	8g/L	.	8b\L	.	.	.	.	.	.	.
8ff#\J	8aa\J	16D\L	.	5 3	16f#/L	.	8a\J	.	.	.	.	.	.	.
.	.	16E\JJ	.	.	16g/JJ	.	.	.	.	.	.	.	.	.
4r	4r	8F#\L	.	6	8a/L	.	[4dd\	.	.	.	.	.	.	.
.	.	8G\J	.	.	8b/J	.	.	.	.	.	.	.	.	.
=7	=7	=7	=7	=7	=7	=7	=7	=7	=7	=7	=7	=7	=7	=7
!	!	!LO:TX:t=P:problem:mixed beam	!	!	!	!	!	!	!	!	!	!	!	!
2ee\	2gg\	8A\L	.	.	8e/L	.	16dd\LL]	.	1r	.	.	1r	.	.
.	.	.	.	.	.	.	16cc#\	.	.	.	.	.	.	.
!	!	!	!	!	!LO:TX:t=P:problem:mixed beam	!	!	!	!	!	!	!	!	!
.	.	8AA/	.	.	16cc#\L	.	16ee\	.	.	.	.	.	.	.
.	.	.	.	.	16b\JJ	.	16dd\JJ	.	.	.	.	.	.	.
.	.	8BB/	.	6	16a/LL	.	16cc#\LL	.	.	.	.	.	.	.
.	.	.	.	.	16g/	.	16b\	.	.	.	.	.	.	.
.	.	8C#/J	.	5	16f#/	.	16a\	.	.	.	.	.	.	.
.	.	.	.	.	16e/JJ	.	16g\JJ	.	.	.	.	.	.	.
16dd\LL	16ff#\LL	8D\L	.	.	(16d/LL	.	(16f#/LL	.	.	.	.	.	.	.
16ee\J	16gg\J	.	.	.	16e/	.	16g/J)	.	.	.	.	.	.	.
8ff#\J	8aa\J	16D\L	.	.	16f#/	.	8a/J	.	.	.	.	.	.	.
.	.	16E\JJ	.	.	16g/JJ	.	.	.	.	.	.	.	.	.
4r	4r	8F#\L	.	6	8a/L)	.	[4dd\	.	.	.	.	.	.	.
!LO:LB:g=original	!	!	!	!	!	!	!	!	!	!	!	!	!	!
.	.	8G\J	.	.	8b/J	.	.	.	.	.	.	.	.	.
=8	=8	=8	=8	=8	=8	=8	=8	=8	=8	=8	=8	=8	=8	=8
!	!	!LO:TX:t=P:problem:mixed beam	!	!	!LO:TX:t=P:problem:mixed beam	!	!	!	!	!	!	!	!	!
2ee\	2gg\	8A\L	.	.	8e/L	.	16dd\LL]	.	1r	.	.	1r	.	.
.	.	.	.	.	.	.	16cc#\	.	.	.	.	.	.	.
.	.	8AA/	.	.	16cc#\L	.	16ee\	.	.	.	.	.	.	.
.	.	.	.	.	16b\JJ	.	16dd\JJ	.	.	.	.	.	.	.
.	.	8BB/	.	6	16a/LL	.	16cc#/LL	.	.	.	.	.	.	.
.	.	.	.	5	16g/	.	16b/	.	.	.	.	.	.	.
.	.	8C#/J	.	.	16f#/	.	16a/	.	.	.	.	.	.	.
.	.	.	.	.	16e/JJ	.	16g/JJ	.	.	.	.	.	.	.
8dd\L	16ff#\LL	8D\L	.	.	(16d/LL	.	16f#/LL	.	.	.	.	.	.	.
.	16ee\J	.	.	.	16e/J)	.	16e/J	.	.	.	.	.	.	.
8a\J	8dd\J	8A|\	.	.	8f#/J	.	8d/J	.	.	.	.	.	.	.
8r	8r	8F#|\	.	.	8r	.	8r	.	.	.	.	.	.	.
16a/LL	16a/LL	8D|\J	.	.	8dd\	.	8ff#\	.	.	.	.	.	.	.
16a/JJ	16a/JJ	.	.	.	.	.	.	.	.	.	.	.	.	.
!	!LO:LB:g=original	!	!	!	!	!	!	!	!	!	!	!	!	!
=9	=9	=9	=9	=9	=9	=9	=9	=9	=9	=9	=9	=9	=9	=9
4a/	4a/	8AA/L	.	.	8cc#\L	.	(16ee\LL	.	1r	.	.	1r	.	.
.	.	.	.	.	.	.	16gg#X\)	.	.	.	.	.	.	.
.	.	8AA/	.	.	8cc#\	.	(16gg#\	.	.	.	.	.	.	.
.	.	.	.	.	.	.	16aa\JJ)	.	.	.	.	.	.	.
.	.	.	.	.	.	.	8qqgg#/	.	.	.	.	.	.	.
8r	8r	8AA/	.	6 4	8dd\	.	8.ff#T\L	.	.	.	.	.	.	.
16a/LL	16a/LL	8AA/J	.	.	8dd\J	.	.	.	.	.	.	.	.	.
16a/JJ	16a/JJ	.	.	.	.	.	32ee\LL	.	.	.	.	.	.	.
.	.	.	.	.	.	.	32dd\JJJ	.	.	.	.	.	.	.
4a/	4a/	8AA/L	.	5 3	(16ee\LL	.	8cc#\L	.	.	.	.	.	.	.
.	.	.	.	.	16gg#X\)	.	.	.	.	.	.	.	.	.
.	.	8AA/	.	.	(16gg#\	.	8cc#\	.	.	.	.	.	.	.
.	.	.	.	.	16aa\JJ)	.	.	.	.	.	.	.	.	.
.	.	.	.	.	8qqgg#/	.	.	.	.	.	.	.	.	.
8r	8r	8AA/	.	6 4	8.ff#T\L	.	8dd\	.	.	.	.	.	.	.
16a/LL	16a/LL	8AA/J	.	.	.	.	8dd\J	.	.	.	.	.	.	.
16a/JJ	16a/JJ	.	.	.	32ee\LL	.	.	.	.	.	.	.	.	.
.	.	.	.	.	32dd\JJJ	.	.	.	.	.	.	.	.	.
=10	=10	=10	=10	=10	=10	=10	=10	=10	=10	=10	=10	=10	=10	=10
4a|/	4a|/	8AA/L	.	5 3	8cc#\L	.	16ee\LL	.	1r	.	.	1r	.	.
.	.	.	.	.	.	.	16gg#X\	.	.	.	.	.	.	.
.	.	8AA/	.	.	8cc#\	.	16gg#\	.	.	.	.	.	.	.
.	.	.	.	.	.	.	16aa\JJ	.	.	.	.	.	.	.
4d|/	4dd|\	8AA/	.	6 4	8dd\	.	8ff#\L	.	.	.	.	.	.	.
.	.	8AA/J	.	.	8dd\J	.	8ff#\J	.	.	.	.	.	.	.
!	!	!LO:TX:t=P:problem:mixed beam	!	!	!	!	!	!	!	!	!	!	!	!
.	.	.	.	.	8qqee/	.	8qqgg#/	.	.	.	.	.	.	.
4a|/	4a|/	8A\L	.	6 4	8ddT\L	.	8ff#T\L	.	.	.	.	.	.	.
.	.	8AA/J	.	5 3	8cc#\J	.	8ee\J	.	.	.	.	.	.	.
!	!	!	!	!	!LO:LB:g=original	!	!	!	!	!	!	!	!	!
8r	8r	4r	.	.	8r	.	8r	.	.	.	.	.	.	.
!	!	!LO:LB:g=original	!	!	!	!	!	!	!	!	!	!	!	!
16a\LL	16ee\LL	.	.	.	16cc#\LL	.	16ee\LL	.	.	.	.	.	.	.
16dd\JJ	16ff#\JJ	.	.	.	16dd\JJ	.	16ff#\JJ	.	.	.	.	.	.	.
!	!	!	!	!	!	!	!LO:LB:g=original	!	!	!	!	!	!	!
=11	=11	=11	=11	=11	=11	=11	=11	=11	=11	=11	=11	=11	=11	=11
8ee|\L	8gg|\L	8r	.	.	8ee|\L	.	8gg|\L	.	1r	.	.	1r	.	.
8ee|\	8gg|\	16E\LL	.	.	8ee|\	.	8gg|\	.	.	.	.	.	.	.
.	.	16F#\JJ	.	.	.	.	.	.	.	.	.	.	.	.
8ee|\	8gg|\	8G\L	.	6	8ee|\	.	8gg|\	.	.	.	.	.	.	.
8ee|\J	8gg|\J	8A\J	.	.	8ee|\J	.	8gg|\J	.	.	.	.	.	.	.
8ee\	8gg\	4B\	.	6 4	8ee\	.	8gg\	.	.	.	.	.	.	.
4dd\	4ff#\	.	.	5 3	4dd\	.	4ff#\	.	.	.	.	.	.	.
.	.	8F#\L	.	6	.	.	.	.	.	.	.	.	.	.
8dd\	8ee\	8G\J	.	6 5	[8b\	.	16ee\LL	.	.	.	.	.	.	.
.	.	.	.	.	.	.	16dd\JJ	.	.	.	.	.	.	.
=12	=12	=12	=12	=12	=12	=12	=12	=12	=12	=12	=12	=12	=12	=12
8a\L	8ee\L	8A\L	.	9	8b\]	.	(16cc#\LL	.	1r	.	.	1r	.	.
.	.	.	.	.	.	.	16a\	.	.	.	.	.	.	.
8dd\J	8ff#\J	16F#\L	.	6	4a/	.	16dd\)	.	.	.	.	.	.	.
.	.	16G\JJ	.	.	.	.	16ee\JJ	.	.	.	.	.	.	.
.	8qqff#/	.	.	.	.	.	8qqff#/	.	.	.	.	.	.	.
!	!	!LO:TX:t=P:problem:mixed beam	!	!	!	!	!	!	!	!	!	!	!	!
4a/	4eeT\	8A\L	.	4	.	.	4eeT\	.	.	.	.	.	.	.
.	.	8AA/J	.	3	8g/	.	.	.	.	.	.	.	.	.
4f#/	4dd\	8D|\L	.	.	8f#|/L	.	4dd\	.	.	.	.	.	.	.
.	.	8E|\	.	.	8g|/J	.	.	.	.	.	.	.	.	.
4r	4r	8F#|\J	.	.	8a/L	fp	8r	.	.	.	.	.	.	.
.	.	8r	.	.	(16c#/L	.	16e/LL	p	.	.	.	.	.	.
.	.	.	.	.	16d/JJ)	.	16f#/JJ	.	.	.	.	.	.	.
=13	=13	=13	=13	=13	=13	=13	=13	=13	=13	=13	=13	=13	=13	=13
1r	1r	8r	.	.	8e|/L	.	8g|/L	.	1r	.	.	1r	.	.
.	.	16E\LL	p	.	8e|/	.	8g|/	.	.	.	.	.	.	.
.	.	16F#\JJ	.	.	.	.	.	.	.	.	.	.	.	.
.	.	8G\L	.	6	8e|/	.	8g|/	.	.	.	.	.	.	.
.	.	8A\J	.	.	8e|/J	.	8g|/J	.	.	.	.	.	.	.
.	.	4B\	.	6 4	8e/	.	8g/	.	.	.	.	.	.	.
.	.	.	.	5 3	4d/	.	4f#/	.	.	.	.	.	.	.
.	.	8F#\L	.	6	.	.	.	.	.	.	.	.	.	.
.	.	[8G\J	.	6 5	8B/	.	16e/LL	.	.	.	.	.	.	.
.	.	.	.	.	.	.	16d/JJ	.	.	.	.	.	.	.
=14	=14	=14	=14	=14	=14	=14	=14	=14	=14	=14	=14	=14	=14	=14
!	!	!	!LO:DY:b:t=for	!	!	!	!	!	!	!	!	!	!	!
8a/L	8ee\L	8G\L]	f	4 2	8A/	.	16c#/LL	f	1r	.	.	1r	.	.
.	.	.	.	.	.	.	16A/	.	.	.	.	.	.	.
8d/J	8ff#\J	16F#\L	.	6	4d/	f	16d/	.	.	.	.	.	.	.
.	.	16G\JJ	.	.	.	.	16e/JJ	.	.	.	.	.	.	.
.	.	.	.	.	.	.	8qqf#/	.	.	.	.	.	.	.
!	!	!LO:TX:t=P:problem:mixed beam	!	!	!	!	!	!	!	!	!	!	!	!
4a/	4eeT\	8A\L	.	4	.	.	4e/	.	.	.	.	.	.	.
.	.	8AA/J	.	3	8c#/	.	.	.	.	.	.	.	.	.
4f#/	4dd\	16D|\LL	.	.	4d/	.	4d/	.	.	.	.	.	.	.
.	.	16G|\	.	.	.	.	.	.	.	.	.	.	.	.
.	.	16F#|\	.	.	.	.	.	.	.	.	.	.	.	.
.	.	16B|\JJ	.	.	.	.	.	.	.	.	.	.	.	.
4r	4r	16A|\LL	.	.	4r	.	4r	.	.	.	.	.	.	.
.	.	16G|\	.	.	.	.	.	.	.	.	.	.	.	.
.	.	16F#|\	.	.	.	.	.	.	.	.	.	.	.	.
.	.	16E|\JJ	.	.	.	.	.	.	.	.	.	.	.	.
=15	=15	=15	=15	=15	=15	=15	=15	=15	=15	=15	=15	=15	=15	=15
!LO:TX:a:t=17.	!LO:TX:a:t=17.	!	!	!	!	!	!	!	!	!	!	!	!	!
1r	1r	8D\L	p	.	8.f#/L	fp	8.dd\L	fp	1r	.	.	8.dd\	Ky-	C none
.	.	8E\	.	.	.	.	.	.	.	.	.	.	.	.
.	.	.	.	.	16e/Jk	.	16a\Jk	.	.	.	.	16a\	-ri-	.
.	.	8F#\	.	6	8d/L	.	8a\L	.	.	.	.	8a,\	-e	.
.	.	8G\J	.	.	8g/J	.	8b\J	.	.	.	.	8b\	e-	.
!	!	!LO:LB:g=original	!	!	!	!	!	!	!	!	!	!	!	!
.	.	.	.	.	8qqa/	.	8qqcc#/	.	.	.	.	.	.	.
.	.	8d\L	.	6 4	8g/L	.	8b\L	.	.	.	.	8b\	-lei-	.
.	.	16D\L	.	5 3	16f#/L	.	8a\J	.	.	.	.	8a,\	-son	.
.	.	16E\JJ	.	.	16g/JJ	.	.	.	.	.	.	.	.	.
.	.	8F#\L	.	6	8a/L	.	[4dd\	.	.	.	.	[4dd\	e-	.
.	.	8G\J	.	.	8b/J	.	.	.	.	.	.	.	.	.
=16	=16	=16	=16	=16	=16	=16	=16	=16	=16	=16	=16	=16	=16	=16
!	!	!LO:TX:t=P:problem:mixed beam	!	!	!LO:TX:t=P:problem:mixed beam	!	!	!	!	!	!	!	!	!
1r	1r	8A\L	.	.	8e/L	.	16dd\LL]	.	1r	.	.	16dd\LL]	.	.
.	.	.	.	.	.	.	16cc#\	.	.	.	.	16cc#\	.	.
.	.	8AA/	.	.	16cc#\L	.	16ee\	.	.	.	.	16ee\	.	.
.	.	.	.	.	16b\JJ	.	16dd\JJ	.	.	.	.	16dd\JJ	.	.
.	.	8BB/	.	6	16a/LL	.	16cc#\LL	.	.	.	.	16cc#\LL	.	.
.	.	.	.	.	16g/	.	16b\	.	.	.	.	16b\	.	.
.	.	8C#/J	.	5	16f#/	.	16a\	.	.	.	.	16a\	.	.
.	.	.	.	.	16e/JJ	.	16g\JJ	.	.	.	.	16g\JJ	.	.
!	!	!	!	!	!LO:LB:g=original	!	!	!	!	!	!	!LO:LB:g=original	!	!
.	.	8D\L	.	.	(16d/LL	.	(16f#/LL	.	.	.	.	16f#/LL	-lei-	.
.	.	.	.	.	16e/	.	16g/J)	.	.	.	.	16g/JJ	.	.
.	.	16D\L	.	.	16f#/	.	8a/J	.	.	.	.	8a,\	-son	.
.	.	16E\JJ	.	.	16g/JJ	.	.	.	.	.	.	.	.	.
.	.	8F#\L	.	6	8a/L)	.	[4dd\	.	.	.	.	[4dd\	e-	.
!	!	!	!	!	!	!	!LO:LB:g=original	!	!	!	!	!	!	!
.	.	8G\J	.	.	16b|/L	.	.	.	.	.	.	.	.	.
.	.	.	.	.	16g|/JJ	.	.	.	.	.	.	.	.	.
=17	=17	=17	=17	=17	=17	=17	=17	=17	=17	=17	=17	=17	=17	=17
!	!	!LO:TX:t=P:problem:mixed beam	!	!	!LO:TX:t=P:problem:mixed beam	!	!	!	!	!	!	!	!	!
1r	1r	8A\L	.	.	8e/L	.	16dd\LL]	.	1r	.	.	16dd\LL]	.	.
.	.	.	.	.	.	.	16cc#\	.	.	.	.	16cc#\	.	.
.	.	8AA/	.	.	16cc#\L	.	16ee\	.	.	.	.	16ee\	.	.
.	.	.	.	.	16b\JJ	.	16dd\JJ	.	.	.	.	16dd\JJ	.	.
.	.	8BB/	.	6	16a/LL	.	16cc#\LL	.	.	.	.	16cc#\LL	.	.
.	.	.	.	.	16g/	.	16b\	.	.	.	.	16b\	.	.
.	.	8C#/J	.	5	16f#/	.	16a\	.	.	.	.	16a\	.	.
.	.	.	.	.	16e/JJ	.	16g\JJ	.	.	.	.	16g\JJ	.	.
.	.	8D\L	.	.	(16d/LL	.	(16f#/LL	.	.	.	.	16f#/LL	lei	.
.	.	.	.	.	16e/J	.	16e/J)	.	.	.	.	16e/JJ	.	.
.	.	8A|\	.	.	8f#/J)	.	8d/J	.	.	.	.	8d/	son	.
.	.	8F#|\	.	.	8r	.	8r	.	.	.	.	8r	.	.
.	.	8D|\J	.	.	8dd\	.	8ff#\	.	.	.	.	8a\	Chri-	.
=18	=18	=18	=18	=18	=18	=18	=18	=18	=18	=18	=18	=18	=18	=18
1r	1r	4AA/	.	.	8cc#\L	.	(16ee\LL	.	1r	.	.	[1a	-ste	.
.	.	.	.	.	.	.	16gg#X\	.	.	.	.	.	.	.
.	.	.	.	.	8cc#\	.	16gg#\)	.	.	.	.	.	.	.
.	.	.	.	.	.	.	16aa\JJ	.	.	.	.	.	.	.
.	.	.	.	.	.	.	8qqgg#/	.	.	.	.	.	.	.
.	.	4r	.	.	8dd\	.	8.ff#T\L	.	.	.	.	.	.	.
.	.	.	.	.	8dd\J	.	.	.	.	.	.	.	.	.
.	.	.	.	.	.	.	32ee\LL	.	.	.	.	.	.	.
.	.	.	.	.	.	.	32dd\JJJ	.	.	.	.	.	.	.
.	.	2r	.	.	(16ee\LL	.	8cc#\L	.	.	.	.	.	.	.
.	.	.	.	.	16gg#X\)	.	.	.	.	.	.	.	.	.
.	.	.	.	.	(16gg#\	.	8cc#\	.	.	.	.	.	.	.
.	.	.	.	.	16aa\JJ)	.	.	.	.	.	.	.	.	.
.	.	.	.	.	8qqgg#/	.	.	.	.	.	.	.	.	.
.	.	.	.	.	8.ff#T\L	.	8dd\	.	.	.	.	.	.	.
.	.	.	.	.	.	.	8dd\J	.	.	.	.	.	.	.
.	.	.	.	.	32ee\LL	.	.	.	.	.	.	.	.	.
.	.	.	.	.	32dd\JJJ	.	.	.	.	.	.	.	.	.
=19	=19	=19	=19	=19	=19	=19	=19	=19	=19	=19	=19	=19	=19	=19
1r	1r	4r	.	.	8cc#\L	.	(16ee\LL	.	1r	.	.	4a\]	.	.
.	.	.	.	.	.	.	16gg#X\)	.	.	.	.	.	.	.
.	.	.	.	.	8cc#\	.	16gg#\	.	.	.	.	.	.	.
.	.	.	.	.	.	.	16aa\JJ	.	.	.	.	.	.	.
.	.	4G#X\	.	7 5	8dd\	.	8ff#\L	.	.	.	.	(8dd\L	e-	.
.	.	.	.	.	8dd\J	.	8ff#\J	.	.	.	.	16ee\L	.	.
.	.	.	.	.	.	.	.	.	.	.	.	16ff#\JJ)	.	.
!	!	!LO:TX:t=P:problem:mixed beam	!	!	!	!	!	!	!	!	!	!	!	!
.	.	.	.	.	8qqee/	.	8qqgg#/	.	.	.	.	.	.	.
.	.	8A\L	.	6 4	8dd\L	.	8ff#\L	.	.	.	.	8ff#\	-lei-	.
.	.	8AA/	.	5 3	8cc#\J	.	8ee\J	.	.	.	.	8ee\	-son	.
.	.	8BB/	.	7	4r	.	4r	.	.	.	.	8r	.	.
.	.	8C#/J	.	5	.	.	.	.	.	.	.	8ee\	e-	.
=20	=20	=20	=20	=20	=20	=20	=20	=20	=20	=20	=20	=20	=20	=20
.	.	.	.	.	.	.	.	.	.	.	.	8qqee/	.	.
1r	1r	4D\	.	.	8d/L	.	8a\L	.	1r	.	.	[4ff#\	.	.
.	.	.	.	.	8d/	.	8a\	.	.	.	.	.	.	.
.	.	4r	.	.	8d/	.	8a\	.	.	.	.	16ff#\LL]	.	.
.	.	.	.	.	.	.	.	.	.	.	.	16gg\	.	.
.	.	.	.	.	8d/J	.	8a\J	.	.	.	.	16ff#\	.	.
.	.	.	.	.	.	.	.	.	.	.	.	16ee#X\JJ	.	.
*	*	*	*	*	*tremolo	*	*tremolo	*	*	*	*	*	*	*
.	.	2r	.	.	8d/L	.	8b\L	.	.	.	.	16ff#\LL	.	.
.	.	.	.	.	.	.	.	.	.	.	.	16gg\	.	.
.	.	.	.	.	8d/	.	8b\	.	.	.	.	16ff#\	.	.
.	.	.	.	.	.	.	.	.	.	.	.	16ee#X\JJ	.	.
.	.	.	.	.	8d/	.	8b\	.	.	.	.	16ff#\LL	.	.
.	.	.	.	.	.	.	.	.	.	.	.	16dd\	.	.
.	.	.	.	.	8d/J	.	8b\J	.	.	.	.	16cc#\	.	.
.	.	.	.	.	.	.	.	.	.	.	.	16b\JJ	.	.
=21	=21	=21	=21	=21	=21	=21	=21	=21	=21	=21	=21	=21	=21	=21
!	!	!LO:TX:a:t=4	!	!	!	!	!	!	!	!	!	!	!	!
1r	1r	1r	.	.	8c#/L	.	8b\L	.	1r	.	.	[4een\	.	.
.	.	.	.	.	8c#/	.	8b\	.	.	.	.	.	.	.
.	.	.	.	.	8c#/	.	8b\	.	.	.	.	16ee\LL]	.	.
.	.	.	.	.	.	.	.	.	.	.	.	16ff#\	.	.
.	.	.	.	.	8c#/J	.	8b\J	.	.	.	.	16ee\	.	.
.	.	.	.	.	.	.	.	.	.	.	.	16dd#X\JJ	.	.
.	.	.	.	.	8c#/L	.	8a/L	.	.	.	.	16ee\LL	.	.
.	.	.	.	.	.	.	.	.	.	.	.	16ff#\	.	.
.	.	.	.	.	8c#/	.	8a/	.	.	.	.	16ee\	.	.
.	.	.	.	.	.	.	.	.	.	.	.	16dd#X\JJ	.	.
.	.	.	.	.	8c#/	.	8a/	.	.	.	.	16ee\LL	.	.
.	.	.	.	.	.	.	.	.	.	.	.	16cc#\	.	.
.	.	.	.	.	8c#/J	.	8a/J	.	.	.	.	16b\	.	.
.	.	.	.	.	.	.	.	.	.	.	.	16a\JJ	.	.
!	!	!	!	!	!	!	!	!	!	!	!	!LO:LB:g=original	!	!
=22	=22	=22	=22	=22	=22	=22	=22	=22	=22	=22	=22	=22	=22	=22
1r	1r	1r	.	.	8B/L	.	8a/L	.	1r	.	.	4ddn\	.	.
.	.	.	.	.	8B/	.	8a/	.	.	.	.	.	.	.
.	.	.	.	.	8B/	.	8a/	.	.	.	.	16dd\LL	.	.
.	.	.	.	.	.	.	.	.	.	.	.	16ee\	.	.
.	.	.	.	.	8B/J	.	8a/J	.	.	.	.	16dd\	.	.
*	*	*	*	*	*Xtremolo	*	*Xtremolo	*	*	*	*	*	*	*
.	.	.	.	.	.	.	.	.	.	.	.	16cc#\JJ	.	.
.	.	.	.	.	8B/L	.	8g#X/L	.	.	.	.	16dd\LL	.	.
.	.	.	.	.	.	.	.	.	.	.	.	16ee\	.	.
.	.	.	.	.	8B/	.	8g#/	.	.	.	.	16dd\	.	.
.	.	.	.	.	.	.	.	.	.	.	.	16cc#\JJ	.	.
.	.	.	.	.	8G#X/	.	8b/	.	.	.	.	16dd\LL	.	.
.	.	.	.	.	.	.	.	.	.	.	.	16b\	.	.
.	.	.	.	.	8G#/J	.	8b/J	.	.	.	.	16cc#\	.	.
!	!	!	!	!	!LO:LB:g=original	!	!	!	!	!	!	!	!	!
.	.	.	.	.	.	.	.	.	.	.	.	16dd\JJ	.	.
=23	=23	=23	=23	=23	=23	=23	=23	=23	=23	=23	=23	=23	=23	=23
!	!	!	!	!	!LO:TX:t=P:problem:mixed beam	!	!	!	!	!	!	!	!	!
1r	1r	1r	.	.	8A|/L	.	8a|\L	.	1r	.	.	8cc#\	.	.
.	.	.	.	.	(8a\	.	(8cc#\	.	.	.	.	4ee\	.	.
.	.	.	.	.	8b\)	.	8dd\)	.	.	.	.	.	.	.
.	.	.	.	.	8g#X|\J	.	8b|\J	.	.	.	.	4ee\	.	.
!	!	!	!	!	!	!	!LO:LB:g=original	!	!	!	!	!	!	!
!	!	!	!	!	!	!	!LO:TX:t=P:problem:mixed beam	!	!	!	!	!	!	!
.	.	.	.	.	8a|/L	.	8cc#|\L	.	.	.	.	.	.	.
.	.	.	.	.	(8A/	.	(8c#/	.	.	.	.	4ee\	.	.
.	.	.	.	.	8B/)	.	8d/)	.	.	.	.	.	.	.
.	.	.	.	.	8G|/J	.	8B|/J	.	.	.	.	[8ee\	.	.
=24	=24	=24	=24	=24	=24	=24	=24	=24	=24	=24	=24	=24	=24	=24
1r	1r	1r	.	.	8A/L	.	8c#/L	.	1r	.	.	16ee\LL]	.	.
.	.	.	.	.	.	.	.	.	.	.	.	16aa\	.	.
.	.	.	.	.	8B/	.	8d/	.	.	.	.	16gg#X\	.	.
.	.	.	.	.	.	.	.	.	.	.	.	16ff#\JJ	.	.
.	.	.	.	.	8c#/	.	8e/	.	.	.	.	8ee\L	.	.
.	.	.	.	.	8d/J	.	8f#/J	.	.	.	.	8dd\J	.	.
.	.	.	.	.	8e/L	.	8e/L	.	.	.	.	(4cc#\	-lei-	.
.	.	.	.	.	8e/	.	8a/	.	.	.	.	.	.	.
.	.	.	.	.	8e/	.	8a/	.	.	.	.	4bT\)	.	.
.	.	.	.	.	8e/J	.	8g#X/J	.	.	.	.	.	.	.
=25	=25	=25	=25	=25	=25	=25	=25	=25	=25	=25	=25	=25	=25	=25
1r	1r	8AA/L	.	.	4A/	.	4a/	.	8.A\	Ky-	C none	4a\	-son	.
.	.	8BB/	.	.	.	.	.	.	.	.	.	.	.	.
.	.	.	.	.	.	.	.	.	16E\	-ri-	.	.	.	.
.	.	8C#/	.	6	4r	.	4r	.	8E\	-e	.	4r	.	.
.	.	8D/J	.	.	.	.	.	.	8Fny\	e-	.	.	.	.
!	!	!LO:LB:g=original	!	!	!	!	!	!	!	!	!	!	!	!
!	!	!LO:TX:t=P:problem:mixed beam	!	!	!	!	!	!	!	!	!	!	!	!
.	.	8A\L	.	6 4	2r	.	2r	.	8F\	-lei-	.	2r	.	.
.	.	16AA/L	.	5 3	.	.	.	.	8E\	-son	.	.	.	.
.	.	16BB/JJ	.	.	.	.	.	.	.	.	.	.	.	.
.	.	8C#/L	.	6	.	.	.	.	4A\	e-	.	.	.	.
!	!	!	!	!	!	!	!	!	!LO:LB:g=original	!	!	!	!	!
.	.	8D/J	.	.	.	.	.	.	.	.	.	.	.	.
=26	=26	=26	=26	=26	=26	=26	=26	=26	=26	=26	=26	=26	=26	=26
!	!	!LO:TX:t=P:problem:mixed beam	!	!	!	!	!	!	!	!	!	!	!	!
1r	1r	8E\L	.	#	1r	.	1r	.	16A\LL	.	.	1r	.	.
.	.	.	.	.	.	.	.	.	16G#X\	.	.	.	.	.
.	.	8EE/	.	.	.	.	.	.	16B\	.	.	.	.	.
.	.	.	.	.	.	.	.	.	16A\JJ	.	.	.	.	.
.	.	8FF#/	.	6	.	.	.	.	16G#X\LL	.	.	.	.	.
.	.	.	.	.	.	.	.	.	16F#\	.	.	.	.	.
.	.	8GG#X/J	.	5	.	.	.	.	16E\	.	.	.	.	.
.	.	.	.	.	.	.	.	.	16D\JJ	.	.	.	.	.
.	.	8AA/L	.	.	.	.	.	.	16C#X/LL	-lei-	.	.	.	.
.	.	.	.	.	.	.	.	.	16D/JJ	.	.	.	.	.
.	.	16AA/L	.	.	.	.	.	.	8E\	-son	.	.	.	.
.	.	16BB/JJ	.	.	.	.	.	.	.	.	.	.	.	.
.	.	8C#/L	.	6	.	.	.	.	[4A\	e-	.	.	.	.
.	.	8D/J	.	.	.	.	.	.	.	.	.	.	.	.
=27	=27	=27	=27	=27	=27	=27	=27	=27	=27	=27	=27	=27	=27	=27
!	!	!LO:TX:t=P:problem:mixed beam	!	!	!	!	!	!	!	!	!	!	!	!
1r	1r	8E\L	.	#	1r	.	1r	.	16A\LL]	.	.	1r	.	.
.	.	.	.	.	.	.	.	.	16G#X\	.	.	.	.	.
.	.	8EE/	.	.	.	.	.	.	16B\	.	.	.	.	.
.	.	.	.	.	.	.	.	.	16A\JJ	.	.	.	.	.
.	.	8FF#/	.	6	.	.	.	.	(16G#X\LL	.	.	.	.	.
.	.	.	.	.	.	.	.	.	16F#\)	.	.	.	.	.
.	.	8GG#X/J	.	5	.	.	.	.	(16E\	-lei-	.	.	.	.
.	.	.	.	.	.	.	.	.	16D\JJ)	.	.	.	.	.
!	!	!LO:TX:t=P:problem:mixed beam	!	!	!	!	!	!	!	!	!	!	!	!
.	.	8AA/L	.	.	.	.	.	.	8C#/	-son	.	.	.	.
.	.	16A\L	.	.	.	.	.	.	8A\	Chri-	.	.	.	.
.	.	16G\JJ	.	.	.	.	.	.	.	.	.	.	.	.
.	.	8F#\L	.	6	.	.	.	.	8A\	-ste	.	.	.	.
.	.	8D\J	.	.	.	.	.	.	[8A\	e-	.	.	.	.
=28	=28	=28	=28	=28	=28	=28	=28	=28	=28	=28	=28	=28	=28	=28
!	!	!LO:TX:t=P:problem:mixed beam	!	!	!	!	!	!	!	!	!	!	!	!
1r	1r	8G\L	.	3 9	1r	.	1r	.	8A\L]	.	.	8r	.	.
.	.	8GG/	.	.	.	.	.	.	16Gn\L	.	.	8b\	Chri-	.
.	.	.	.	.	.	.	.	.	16F#\JJ	.	.	.	.	.
.	.	8BB/	.	6	.	.	.	.	4.G\	.	.	8b\	-ste	.
.	.	8GG/J	.	.	.	.	.	.	.	.	.	4b\	e-	.
.	.	8AA/L	.	9 7	.	.	.	.	.	.	.	.	.	.
.	.	8AA/	.	8 6	.	.	.	.	16F#\LL	-lei-	.	16a\LL	-lei-	.
.	.	.	.	.	.	.	.	.	16E\JJ	.	.	16g\JJ	.	.
.	.	8BB/	.	5	.	.	.	.	8D\	-son	.	8f#/	-son	.
.	.	8GG#X/J	.	7 5	.	.	.	.	8B\	e-	.	8dd\	e-	.
=29	=29	=29	=29	=29	=29	=29	=29	=29	=29	=29	=29	=29	=29	=29
!	!	!LO:TX:t=P:problem:mixed beam	!	!	!	!	!	!	!	!	!	!	!	!
1r	1r	8AA/L	.	6 4	2r	.	2r	.	(4F#\	-lei-	.	(4dd\	-lei-	.
.	.	16A\L	.	.	.	.	.	.	.	.	.	.	.	.
.	.	16G\JJ	.	.	.	.	.	.	.	.	.	.	.	.
!	!	!LO:TX:t=P:problem:mixed beam	!	!	!	!	!	!	!	!	!	!	!	!
.	.	8A\L	.	5 3	.	.	.	.	4ET\)	.	.	4cc#\)	.	.
.	.	8AA/J	.	.	.	.	.	.	.	.	.	.	.	.
.	.	8D\L	.	.	8r	.	8r	.	4D\	-son	.	4dd\	-son	.
!	!	!	!	!	!	!LO:DY:a	!	!LO:DY:a:t=for	!	!	!	!	!	!
.	.	8D\	.	n	16ff#\LL	f	16aa\LL	f	.	.	.	.	.	.
.	.	.	.	.	16ee\JJ	.	16gg\JJ	.	.	.	.	.	.	.
.	.	8E\	.	6	16dd\LL	.	16ff#\LL	.	4r	.	.	4r	.	.
.	.	.	.	.	16ccn\	.	16ee\	.	.	.	.	.	.	.
.	.	8F#\J	.	5	16b\	.	16dd\	.	.	.	.	.	.	.
.	.	.	.	.	16a\JJ	.	16ccn\JJ	.	.	.	.	.	.	.
=30	=30	=30	=30	=30	=30	=30	=30	=30	=30	=30	=30	=30	=30	=30
1r	1r	8G\L	.	.	8g/L	.	8b\L	.	1r	.	.	1r	.	.
.	.	8E\	.	.	16gg\L	.	16bb\L	.	.	.	.	.	.	.
.	.	.	.	.	16ff#\JJ	.	16aa\JJ	.	.	.	.	.	.	.
.	.	8F#\	.	6	16ee\LL	.	16gg\LL	.	.	.	.	.	.	.
.	.	.	.	.	16dd\	.	16ff#\	.	.	.	.	.	.	.
.	.	8G\J	.	5	16cc#X\	.	16ee\	.	.	.	.	.	.	.
.	.	.	.	.	16b\JJ	.	16dd\JJ	.	.	.	.	.	.	.
!	!	!LO:TX:t=P:problem:mixed beam	!	!	!	!	!	!	!	!	!	!	!	!
.	.	8A\L	.	n	8a/L	.	8cc#\L	.	.	.	.	.	.	.
.	.	8AA/	.	.	16cc#/L	.	16ee\L	.	.	.	.	.	.	.
.	.	.	.	.	16b/JJ	.	16dd\JJ	.	.	.	.	.	.	.
.	.	8BB/	.	6	16a/LL	.	16cc#\LL	.	.	.	.	.	.	.
.	.	.	.	.	16g/	.	16b\	.	.	.	.	.	.	.
.	.	8C#/J	.	5	16f#/	.	16a\	.	.	.	.	.	.	.
!	!	!LO:LB:g=original	!	!	!	!	!	!	!	!	!	!	!	!
.	.	.	.	.	16e/JJ	.	16g\JJ	.	.	.	.	.	.	.
=31	=31	=31	=31	=31	=31	=31	=31	=31	=31	=31	=31	=31	=31	=31
1r	1r	8D\L	.	.	8d/	.	8f#/L	.	1r	.	.	1r	.	.
!LO:LB:g=original	!	!	!	!	!	!	!LO:TX:t=P:problem:mixed beam	!	!	!	!	!LO:LB:g=original	!	!
.	.	8F#\	.	.	4dd\	.	8dd|\J	.	.	.	.	.	.	.
.	.	8G\	.	.	.	.	8b\L	.	.	.	.	.	.	.
.	.	8E\J	.	.	4dd\	.	8gg\J	.	.	.	.	.	.	.
!	!	!LO:TX:t=P:problem:mixed beam	!	!	!	!	!	!	!	!	!	!	!	!
.	.	8A\L	.	6 4	.	.	4ff#\	.	.	.	.	.	.	.
.	.	8G\	.	.	4dd\	.	.	.	.	.	.	.	.	.
.	.	8A\	.	5 4	.	.	4eeT\	.	.	.	.	.	.	.
.	.	8AA/J	.	3	16cc#t\LL	.	.	.	.	.	.	.	.	.
.	.	.	.	.	16g\JJ	.	.	.	.	.	.	.	.	.
!	!	!	!	!	!LO:LB:g=original	!	!	!	!	!	!	!	!	!
=32	=32	=32	=32	=32	=32	=32	=32	=32	=32	=32	=32	=32	=32	=32
!	!	!LO:TX:b:t=Tutti	!	!	!	!	!	!	!	!	!	!	!	!
4.ff#\	4.aa\	8D\L	.	.	8f#/L	.	8.dd\L	.	8.D\	Ky-	.	8.dd\	Ky-	.
.	.	8E\	.	.	8e/J	.	.	.	.	.	.	.	.	.
.	.	.	.	.	.	.	16a\Jk	.	16E\	-ri-	.	16a\	-ri-	.
.	.	8F#\	.	6	8.d/L	.	8a\L	.	8F#\	-e	.	8a\	-e	.
8gg\	8bb\	8G\J	.	.	.	.	8b\J	.	8G\	e-	.	8b\	e-	.
.	.	.	.	.	16g/Jk	.	.	.	.	.	.	.	.	.
.	.	.	.	.	8qqa/	.	8qqcc#/	.	.	.	.	.	.	.
8gg\L	8bb\L	8d\L	.	6 4	8g/L	.	8b\L	.	8d\	-lei-	.	8b\	-lei-	.
8ff#\J	8aa\J	16D\L	.	5 3	16f#/L	.	8a\J	.	8D/	-son	.	8a\	-son	.
.	.	16E\JJ	.	.	16g/JJ	.	.	.	.	.	.	.	.	.
4r	4r	8F#\L	.	6	8a/L	.	[4dd\	.	8r	.	.	[4dd\	e-	.
.	.	8G\J	.	.	8b/J	.	.	.	8B\	e-	.	.	.	.
!	!	!	!	!	!	!	!	!	!LO:LB:g=original	!	!	!	!	!
=33	=33	=33	=33	=33	=33	=33	=33	=33	=33	=33	=33	=33	=33	=33
!	!	!LO:TX:t=P:problem:mixed beam	!	!	!	!	!	!	!	!	!	!	!	!
2ee\	2gg\	8A\L	.	.	8e/L	.	16dd\LL]	.	8A\L	.	.	16dd\LL]	.	.
.	.	.	.	.	.	.	16cc#\	.	.	.	.	16cc#\	.	.
!	!	!	!	!	!	!	!	!	!LO:TX:t=P:problem:mixed beam	!	!	!	!	!
.	.	8AA/	.	.	16cc#/L	.	16ee\	.	8AA/	.	.	16ee\	.	.
.	.	.	.	.	16b/JJ	.	16dd\JJ	.	.	.	.	16dd\JJ	.	.
!	!	!	!	!	!	!	!LO:LB:g=original	!	!	!	!	!	!	!
.	.	8BB/	.	6	16a/LL	.	16cc#\LL	.	8BB/	.	.	16cc#\LL	.	.
.	.	.	.	.	16g/	.	16b\	.	.	.	.	16b\	.	.
.	.	8C#/J	.	5	16f#/	.	16a\	.	8C#/J	.	.	16a\	.	.
.	.	.	.	.	16e/JJ	.	16g\JJ	.	.	.	.	16g\JJ	.	.
16dd\LL	16ff#\LL	8D\L	.	.	(16d/LL	.	(16f#/LL	.	8D\L	-lei-	.	16f#/LL	-lei-	.
16ee\J	16gg\J	.	.	.	16e/	.	16g/J)	.	.	.	.	16g/JJ	.	.
8ff#\J	8aa\J	16D\L	.	.	16f#/	.	8a/J	.	16D\L	.	.	8a\	-son	.
.	.	16E\JJ	.	.	16g/JJ)	.	.	.	16E\JJ	.	.	.	.	.
4r	4r	8F#\L	.	6	8a/L	.	[4dd\	.	8F#\	-son	.	4dd\	e-	.
!	!LO:LB:g=original	!	!	!	!	!	!	!	!	!	!	!	!	!
.	.	8G\J	.	.	8b|/J	.	.	.	8G\	e-	.	.	.	.
=34	=34	=34	=34	=34	=34	=34	=34	=34	=34	=34	=34	=34	=34	=34
!	!	!LO:TX:t=P:problem:mixed beam	!	!	!	!	!	!	!LO:TX:t=P:problem:mixed beam	!	!	!	!	!
2ee\	2gg\	8A\L	.	.	8e/L	.	16dd\LL]	.	8A\L	.	.	16dd\LL	.	.
.	.	.	.	.	.	.	16cc#\	.	.	.	.	16cc#\	.	.
!	!	!	!	!	!LO:TX:t=P:problem:mixed beam	!	!	!	!	!	!	!	!	!
.	.	8AA/	.	.	16cc#\L	.	16ee\	.	8AA/	.	.	16ee\	.	.
.	.	.	.	.	16b\JJ	.	16dd\JJ	.	.	.	.	16dd\JJ	.	.
.	.	8BB/	.	6	16a/LL	.	16cc#\LL	.	8BB/	.	.	16cc#\LL	.	.
.	.	.	.	.	16g/	.	16b\	.	.	.	.	16b\	.	.
.	.	8C#/J	.	5	16f#/	.	16a\	.	8C#/J	.	.	16a\	.	.
.	.	.	.	.	16e/JJ	.	16g\JJ	.	.	.	.	16g\JJ	.	.
16dd\LL	16aa\LL	8D\L	.	.	(16d/LL	.	(16f#/LL	.	8D\	-lei-	.	16f#/LL	-lei-	.
16a\J	16gg\J	.	.	.	16e/J	.	16e/J)	.	.	.	.	16e/JJ	.	.
8f#\J	8ff#\J	8A|\	.	.	8f#/J)	.	8d/J	.	16A\	-son	.	8d/	-son	.
.	.	.	.	.	.	.	.	.	16A\	e-	.	.	.	.
8r	8r	8F#|\	.	.	8r	.	8r	.	8F#\	-lei-	.	8r	.	.
16a/LL	16a/LL	8D|\J	.	.	8dd\	.	8ff#\	.	8D\	-son	.	8ff#\	e-	.
16a/JJ	16a/JJ	.	.	.	.	.	.	.	.	.	.	.	.	.
=35	=35	=35	=35	=35	=35	=35	=35	=35	=35	=35	=35	=35	=35	=35
4a/	4a/	8AA/L	.	.	8cc#\L	.	16ee\LL	.	2A\	Chri-	.	(4ee\	-lei-	.
.	.	.	.	.	.	.	16gg#X\	.	.	.	.	.	.	.
.	.	8AA/	.	.	8cc#\	.	16gg#\	.	.	.	.	.	.	.
.	.	.	.	.	.	.	16aa\JJ	.	.	.	.	.	.	.
.	.	.	.	.	.	.	8qqgg#/	.	.	.	.	.	.	.
8r	8r	8AA/	.	6 4	8dd\	.	8.ff#T\L	.	.	.	.	4dd\)	.	.
16a/LL	16a/LL	8AA/J	.	.	8dd\J	.	.	.	.	.	.	.	.	.
16a/JJ	16a/JJ	.	.	.	.	.	32ee\LL	.	.	.	.	.	.	.
.	.	.	.	.	.	.	32dd\JJJ	.	.	.	.	.	.	.
4a/	4a/	8AA/L	.	5 4	(16ee\LL	.	8cc#\L	.	[2A\	-ste	.	4cc#,\	-son	.
.	.	.	.	.	16gg#X\)	.	.	.	.	.	.	.	.	.
.	.	8AA/	.	.	16gg#\	.	8cc#\	.	.	.	.	.	.	.
.	.	.	.	.	16aa\JJ	.	.	.	.	.	.	.	.	.
.	.	.	.	.	8qqgg#/	.	.	.	.	.	.	.	.	.
8r	8r	8AA/	.	6 4	8.ff#T\L	.	8dd\	.	.	.	.	8dd\L	X-	.
16a/LL	16a/LL	8AA/J	.	.	.	.	8dd\J	.	.	.	.	8dd\J	.	.
16a/JJ	16a/JJ	.	.	.	32ee\LL	.	.	.	.	.	.	.	.	.
.	.	.	.	.	32dd\JJJ	.	.	.	.	.	.	.	.	.
=36	=36	=36	=36	=36	=36	=36	=36	=36	=36	=36	=36	=36	=36	=36
4a|/	4a|/	8AA/L	.	5 3	8cc#\L	.	(16ee\LL	.	4A\]	.	.	4dd,\	-te	.
.	.	.	.	.	.	.	16gg#X\	.	.	.	.	.	.	.
.	.	8AA/	.	.	8cc#\	.	16gg#\	.	.	.	.	.	.	.
.	.	.	.	.	.	.	16aa\JJ)	.	.	.	.	.	.	.
4d|/	4dd|\	8AA/	.	6 4	8dd\	.	8ff#\L	.	4A\	e-	.	4ff#\	e-	.
.	.	8AA/J	.	.	8dd\J	.	8ff#\J	.	.	.	.	.	.	.
!	!	!LO:LB:g=original	!	!	!	!	!	!	!	!	!	!	!	!
!	!	!LO:TX:t=P:problem:mixed beam	!	!	!	!	!	!	!	!	!	!	!	!
.	.	.	.	.	8qqee/	.	8qqgg#/	.	.	.	.	.	.	.
4a|/	4a|/	8A\L	.	6 4	8dd\L	.	8ff#\L	.	8A\	-lei-	.	8ff#\	-lei	.
.	.	8AA/J	.	5 3	8cc#\J	.	8ee\J	.	8AA/	-son	.	8ee\	son	.
8r	8r	4r	.	.	8r	.	8r	.	4r	.	.	8r	.	.
16a\LL	16ee\LL	.	.	.	16cc#\LL	.	16ee\LL	.	.	.	.	(16ee\LL	Chri-	.
16dd\JJ	16ff#\JJ	.	.	.	16dd\JJ	.	16ff#\JJ	.	.	.	.	16ff#\JJ)	.	.
!	!	!	!	!	!LO:LB:g=original	!	!	!	!	!	!	!LO:LB:g=original	!	!
=37	=37	=37	=37	=37	=37	=37	=37	=37	=37	=37	=37	=37	=37	=37
8ee|\L	8gg|\L	8r	.	.	8ee|\L	.	8gg|\L	.	8r	.	.	8gg,\	-ste	.
8ee|\	8gg|\	16E\LL	.	.	8ee|\	.	8gg|\	.	16E\LL	Chri-	.	8gg\	X-	.
.	.	16F#\JJ	.	.	.	.	.	.	16F#\JJ	.	.	.	.	.
8ee|\	8gg|\	8G\L	.	6	8ee|\	.	8gg|\	.	8G\	-ste	.	8gg\	-ste	.
8ee|\J	8gg|\J	8A\J	.	.	8ee|\J	.	8gg|\J	.	8A\	e-	.	8gg\	e-	.
8ee\	8gg\	4B\	.	.	8ee\	.	8gg\	.	4B\	-lei-	.	8gg\	-lei-	.
4dd\	4ff#\	.	.	.	4dd\	.	4ff#\	.	.	.	.	4ff#,\	-son	.
.	.	8F#\L	.	6	.	.	.	.	8F#\	-son	.	.	.	.
8dd\	8ee\	8G\J	.	6 5	8bb\	.	16ee\LL	.	8G\	e-	.	16ee\LL	e-	.
.	.	.	.	.	.	.	16dd\JJ	.	.	.	.	16dd\JJ	.	.
=38	=38	=38	=38	=38	=38	=38	=38	=38	=38	=38	=38	=38	=38	=38
8a/L	8ee\L	8A\L	.	.	8ee\	.	(16cc#\LL	.	8A\L	.	.	8cc#\L	.	.
.	.	.	.	.	.	.	16a\	.	.	.	.	.	.	.
8dd/J	8ff#\J	8B\	.	.	4dd\	.	16dd\	.	8B\J	.	.	8dd\J	.	.
.	.	.	.	.	.	.	16ee\JJ)	.	.	.	.	.	.	.
.	8qqff#/	.	.	.	.	.	8qqff#/	.	.	.	.	.	.	.
4a/	4ee\	8G\	.	6 5	.	.	4eeT\	.	8G\L	-lei-	.	4eeT\	-lei-	.
.	.	8A\J	.	.	8cc#t\	.	.	.	8A\J	.	.	.	.	.
4f#/	4dd\	4D\	.	.	4dd\	.	4dd\	.	4D/	-son	.	4dd\	-son	.
4r	4r	4r	.	.	8r	.	8r	.	4r	.	.	8r	.	.
.	.	.	.	.	16c#/LL	.	16e/LL	.	.	.	.	16e/LL	Chri-	.
.	.	.	.	.	16d/JJ	.	16f#/JJ	fp	.	.	.	16f#/JJ	.	.
=39	=39	=39	=39	=39	=39	=39	=39	=39	=39	=39	=39	=39	=39	=39
1r	1r	8r	.	.	8e|/L	.	8g|/L	.	8r	.	.	8g\	-ste	.
!LO:LB:g=original	!	!	!	!	!	!	!	!	!	!	!	!	!	!
*	*	*	*	*	*	*	*	*	*	*	*	*	*ij	*
.	.	16E\LL	.	.	8e|/	.	8g|/	.	16E\LL	Chri-	.	8g\	Chri-	.
.	.	16F#\JJ	.	.	.	.	.	.	16F#\JJ	.	.	.	.	.
.	.	8G\L	.	6	8e|/	.	8g|/	.	8G\	-ste	.	8g\	-ste	.
*	*	*	*	*	*	*	*	*	*	*	*	*	*Xij	*
.	.	8A\J	.	.	8e|/J	.	8g|/J	.	8A\	e-	.	8g\	e-	.
!	!	!	!	!	!	!	!	!	!LO:LB:g=original	!	!	!	!	!
.	.	4B\	.	6 4	8e/	.	8g/	.	4B\	-lei-	.	8g\	-lei-	.
.	.	.	.	5 3	4d/	.	4f#/	.	.	.	.	4f#/	-son	.
.	.	8F#\L	.	6	.	.	.	.	8F#\	-son	.	.	.	.
.	.	8G\J	.	.	8b\	.	16e/LL	.	8G\	e-	.	16e/LL	e-	.
.	.	.	.	.	.	.	16d/JJ	.	.	.	.	16d/JJ	.	.
=40	=40	=40	=40	=40	=40	=40	=40	=40	=40	=40	=40	=40	=40	=40
2r	2r	8A\L	.	.	8e/	.	16c#/LL	.	8A\L	-lei-	.	(8c#/L	.	.
.	.	.	.	.	.	.	16A/	.	.	.	.	.	.	.
.	.	8B\	.	.	4d/	.	16d/	.	8B\J	.	.	8d/J)	.	.
.	.	.	.	.	.	.	16e/JJ	.	.	.	.	.	.	.
.	.	.	.	.	.	.	8qqf#/	.	.	.	.	.	.	.
.	.	8G\	.	6 5	.	.	4eT/	.	8G\L	-son	.	4eT/	-lei-	.
.	.	8A\J	.	.	8c#/	.	.	.	8A\J	.	.	.	.	.
*	*	*	*	*	*	*	*	*	*	*ij	*	*	*	*
8r	8r	8D\L	.	.	8d/L	f	8d/L	f	8D\	e-	.	8d,/	-son	.
!	!	!	!	!	!LO:TX:t=P:problem:mixed beam	!	!LO:TX:t=P:problem:mixed beam	!	!	!	!	!	!	!
8dd\	8ff#\	8B\	.	.	8dd\J	.	8ff#\J	.	8B\	.	.	8ff#\	e-	.
8ee\L	8gg\L	8G\	.	6	8ee\L	.	8gg\L	.	(8G\L	-lei-	.	8gg\L	-lei-	.
16dd\L	16ff#\L	8A\J	.	.	16dd\L	.	16ff#\L	.	8A\J)	.	.	(16ff#\L	.	.
16a\JJ	16ee\JJ	.	.	.	16cc#\JJ	.	16ee\JJ	.	.	.	.	16ee\JJ)	.	.
!	!	!	!	!	!	!	!	!	!	!	!	!LO:LB:g=original	!	!
=41	=41	=41	=41	=41	=41	=41	=41	=41	=41	=41	=41	=41	=41	=41
!	!	!	!	!	!	!	!LO:TX:t=P:problem:mixed beam	!	!	!	!	!	!	!
4dd\	4ff#\	8D/L	fp	.	8dd\L	fp	8ff#\L	.	4D\	-son	.	4ff#\	-son	.
!	!	!	!	!	!LO:TX:t=P:problem:mixed beam	!	!	!	!	!	!	!	!	!
.	.	8BB/	.	.	8d/J	.	8f#/J	fp	.	.	.	.	.	.
4r	4r	8GG/	.	6	8e/L	.	8g/L	.	4r	.	.	4r	.	.
.	.	8AA/J	.	.	16d/L	.	16f#/L	.	.	.	.	.	.	.
.	.	.	.	.	16c#/JJ	.	16e/JJ	.	.	.	.	.	.	.
!	!	!	!LO:DY:b:t=for	!	!	!	!	!	!	!	!	!	!	!
8r	8r	8D\L	f	.	8d/L	f	8f#/L	.	8r	.	.	8r	.	.
!	!	!	!	!	!LO:TX:t=P:problem:mixed beam	!	!	!	!	!	!	!	!	!
8dd\	8ff#\	8B\	.	.	8dd\J	.	8ff#\J	f	8B\	e	.	8dd\	e-	.
8ee\L	8ff#\L	8G\	.	6	8ee\L	.	8gg\L	.	(8G\L	lei-	.	(8ee\L	-lei-	.
16dd\L	16ff#\L	8A\J	.	.	16dd\L	.	16ff#\L	.	8A\J)	.	.	16dd\L	.	.
!	!	!LO:LB:g=original	!	!	!	!	!	!	!	!	!	!	!	!
16a\JJ	16ee\JJ	.	.	.	16cc#\JJ	.	16ee\JJ	.	.	.	.	16cc#\JJ)	.	.
=42	=42	=42	=42	=42	=42	=42	=42	=42	=42	=42	=42	=42	=42	=42
!	!	!	!	!	!	!	!LO:TX:t=P:problem:mixed beam	!	!	!	!	!	!	!
4dd\	4ff#\	8D/L	p	.	8dd\L	.	8ff#\L	.	4D\	-son	.	4dd\	-son	.
*	*	*	*	*	*	*	*	*	*	*Xij	*	*	*	*
!	!	!	!	!	!LO:TX:t=P:problem:mixed beam	!	!	!	!	!	!	!	!	!
.	.	8BB/	.	.	8d/J	.	8f#/J	fp	.	.	.	.	.	.
4r	4r	8GG/	.	6	8e/L	.	8g/L	.	4r	.	.	4r	.	.
.	.	8AA/J	.	.	16d/L	.	16f#/L	.	.	.	.	.	.	.
.	.	.	.	.	16c#/JJ	.	16e/JJ	.	.	.	.	.	.	.
!	!	!	!	!	!LO:LB:g=original	!	!	!	!	!	!	!	!	!
2r	2r	4D\	.	.	4d/	.	8f#/L	.	2r	.	.	8r	.	.
!	!LO:LB:g=original	!	!	!	!	!	!	!	!	!	!	!LO:TX:a:B:t=Adagio	!	!
.	.	.	.	.	.	.	8a/	f	.	.	.	8a\	Chri-	.
.	.	4r	.	.	4r	.	8b/	.	.	.	.	8b\	-ste	.
.	.	.	.	.	.	.	8cc#/J	.	.	.	.	8cc#\	e-	.
=43	=43	=43	=43	=43	=43	=43	=43	=43	=43	=43	=43	=43	=43	=43
8r	8r	8r	.	.	8r	.	4.dd\	.	8r	.	.	(4.dd\	-lei-	.
!	!	!	!LO:DY:b:t=for	!	!	!	!	!	!	!	!	!	!	!
16d/LL	16d/LL	8D\L	f	.	8f#/L	f	.	.	8D\	Chri-	.	.	.	.
16d/JJ	16d/JJ	.	.	.	.	.	.	.	.	.	.	.	.	.
8d/L	8d/L	8E\	.	7	8g/	.	.	.	8E\	-ste	.	.	.	.
8d/J	8d/J	8F#\J	.	6 5	8a/J	.	8ccn\	.	8F#\	e-	.	8ccn\)	.	.
4d/	4d/	4G\	.	.	4g/	.	8b\L	.	4G\	lei-	.	4b\	-son	.
.	.	.	.	.	.	.	8gg\J	.	.	.	.	.	.	.
.	.	.	.	.	.	.	.	.	.	.	.	16qqa/LL	.	.
.	.	.	.	.	.	.	.	.	.	.	.	16qqb/JJ	.	.
4d/	4d/	4F#\	.	6	4a/	.	8ccn\L	.	8F#\	-son	.	4ccn\	e-	.
.	.	.	.	6 5	.	.	8aa\J	.	8F#\	e-	.	.	.	.
=44	=44	=44	=44	=44	=44	=44	=44	=44	=44	=44	=44	=44	=44	=44
4d/	4d/	4G\	.	.	8d/	.	4.bT\	.	(4G\	-lei-	.	2bT\	-lei	.
.	.	.	.	.	4g/	.	.	.	.	.	.	.	.	.
4d/	4d/	4GG/	.	.	.	.	.	.	4GG/)	.	.	.	.	.
.	.	.	.	.	8e/	.	8cc#X\	.	.	.	.	.	.	.
2d/	2d/	2D/	.	.	2f#/	.	2dd\	.	2D\	-son	.	2a\	son.	.
==	==	==	==	==	==	==	==	==	==	==	==	==	==	==
*-	*-	*-	*-	*-	*-	*-	*-	*-	*-	*-	*-	*-	*-	*-
!!!system-decoration: [(s1,s2)][(s3,s4)][(s5)][(s6,s7)]
!!!RDF**kern: | = vertical stroke
!!!ENC: Marta Opryszak
!!!END: 2022-03-29
!!!ENC: Julita Ruszuk
!!!END: 2022-07-05
